!! 00044] TT[TB
!! Zh. Ch. 1-1855, 570896), Peking: 28832/ 24483)
!!!OTL: Genzhe taiyang yilu lai
!!!ARE: Asia, China,ÿSichuan
!! Ethnic Group: Han
!! MM,
!!!SCT: C1215
!!!YEM: Copyright 1995, estate of Helmut Schaffrath.
**kern
*ICvox
*Ivox
!! Mixed meters:  4/4; 3/4; 2/4
*M3/4
*k[f#c#g#]
*A:
{8r
16aa
16ff#
=1
8ee
16ff#
16aa
2bb
8bb
8ccc#
=2
8aa
8bb
2ff#}
=3
{8r
16bb
16aa
=4
*M4/4
8aa
8bb
8bb
8aa
[4.ff#
16ff#]
16ee
=5
*M2/4
2ee}
=6
{8aa
8ff#
8aa
16ff#
16ff#
=7
8ee
8aa
4ff#}
=8
{16ff#
16aa
8ff#
8aa
8ff#
=9
8ff#
8aa
8cc#
8r}
=10
{16ff#
16aa
16ee
16ff#
8ee
8ff#
=11
8ff#
16ee
16aa
4ff#}
=12
{8aa
8ff#
16ee
16aa
8ff#
=13
8ff#
8aa
8cc#
8r}
=14
{8r
16ff#
16ff#
=15
*M4/4
8ee
16ff#
16aa
2bb
8bb
8ccc#
=16
*M3/4
8aa
8bb
2ff#}
=17
{8r
16bb
16aa
=18
*M4/4
8aa
8bb
8bb
8aa
[4.ff#
16ff#]
16ee
=19
2ee}
==
!!!AGN: Shange
!! Notenbeilage kopiert
!!    Wenig Verzierungen, Glissandi. Grundtonangabe fehlt.
!!!ONB: ESAC (Essen Associative Code) Database: CHINA
!!!AMT: irregular
!!!AIN: vox
!!!EED: Helmut Schaffrath
!!!EEV: 1.0
*-
